img/svg-icons/austin.svg

<svg id="austin" xmlns="http://www.w3.org/2000/svg" width="51.4843" height="65.0016" viewBox="0 0 51.4843 65.0016"><title>austin</title><path d="M23.9864,11.1791c-0.2616,0-.4736,1.0308-0.4736,1.5948v3.13l0.9472-.189V12.4837A1.4732,1.4732,0,0,0,23.9864,11.1791Z" transform="translate(-0.0431 0.0016)"  /><path d="M49.8483,52.0827C47.18,49.4149,42.3024,47.5993,35.35,46.6864a79.73,79.73,0,0,0-9.5645-.6244,79.73,79.73,0,0,0-9.5645.6244C9.2681,47.5993,4.39,49.4149,1.7223,52.0827A5.544,5.544,0,0,0,.0475,56.198a4.4107,4.4107,0,0,0,1.3074,2.9866c0,0.0313-.003.0623-0.0017,0.0936a4.6459,4.6459,0,0,0,1.7561,3.1283v2.02L1.649,65H49.9215l-1.46-.5732v-2.02a4.6459,4.6459,0,0,0,1.7561-3.1283c0.0013-.0313-0.002-0.0623-0.0017-0.0936A4.4107,4.4107,0,0,0,51.523,56.198,5.544,5.544,0,0,0,49.8483,52.0827ZM3.1093,60.3609a2.3148,2.3148,0,0,1-.4037-1.14,2.0168,2.0168,0,0,1,.4037-1.2367v2.3767ZM7.29,62.7857L4.5806,63.8493v-7.3A14.6156,14.6156,0,0,1,7.29,54.94v7.846Zm6.14-2.41L8.7614,62.2082V54.3206a32.2528,32.2528,0,0,1,4.6692-1.338v7.3927Zm7.6038-2.9847-6.1325,2.4072V52.6949a59.2227,59.2227,0,0,1,6.1325-.7443v5.44Zm4.751,6.4935a2.3919,2.3919,0,1,1,2.39-2.3919A2.3919,2.3919,0,0,1,25.7853,63.8841Zm3.28-7.0711-3.28-1.2874-3.28,1.2874V51.8622c1.923-.0947,2.5745-0.0931,3.2818-0.0939s1.3545-.0008,3.2775.0939v4.9509Zm7.6037,2.9847-6.1325-2.4072v-5.44a59.2227,59.2227,0,0,1,6.1325.7443v7.1029Zm6.14,2.41L38.14,60.3753V52.9827a32.2528,32.2528,0,0,1,4.6692,1.338v7.8875ZM46.99,63.8493L44.28,62.7857V54.94A14.6156,14.6156,0,0,1,46.99,56.55v7.3Zm1.4713-3.4883V57.9842a2.0168,2.0168,0,0,1,.4037,1.2367A2.3148,2.3148,0,0,1,48.4612,60.3609Zm1.3216-2.8086a4.9891,4.9891,0,0,0-.843-1.0961c-2.6663-2.6663-7.39-4.4893-14.0388-5.418a72.3853,72.3853,0,0,0-9.1157-.6607,72.3853,72.3853,0,0,0-9.1157.6607C10.02,51.967,5.2971,53.79,2.6308,56.4563a4.9891,4.9891,0,0,0-.843,1.0961A3.1693,3.1693,0,0,1,1.4,56.1408a4.1889,4.1889,0,0,1,1.28-3.1008c5.877-5.8771,22.9434-5.7732,23.1058-5.7732s17.2288-.1039,23.1058,5.7732a4.1889,4.1889,0,0,1,1.28,3.1008A3.1693,3.1693,0,0,1,49.7828,57.5524Z" transform="translate(-0.0431 0.0016)"  /><path d="M19.8012,38.9434a1.8063,1.8063,0,0,0-1.3542,1.7589v4.0025l1.3542-.1144,1.3542-.1V40.5155A1.5989,1.5989,0,0,0,19.8012,38.9434Z" transform="translate(-0.0431 0.0016)"  /><path d="M14.454,40.075c-0.636,0-1.1517,1.1518-1.1517,1.7937v3.7339l1.1517-.2288,1.1517-.2006v-3.678A1.4075,1.4075,0,0,0,14.454,40.075Z" transform="translate(-0.0431 0.0016)"  /><path d="M10.5159,41.6961c-0.5242,0-.9493,1.2383-0.9493,1.8284V46.99l0.9493-.3432,0.9493-.3009V42.9642A1.2219,1.2219,0,0,0,10.5159,41.6961Z" transform="translate(-0.0431 0.0016)"  /><path d="M25.7855,38.3906v0l-0.0024,0-0.0024,0v0a1.7957,1.7957,0,0,0-1.5518,1.7238v4.2711h3.1084V40.1145A1.7957,1.7957,0,0,0,25.7855,38.3906Z" transform="translate(-0.0431 0.0016)"  /><path d="M31.765,38.9434a1.5989,1.5989,0,0,0-1.3541,1.5722V44.49l1.3541,0.1,1.3542,0.1144V40.7023A1.8063,1.8063,0,0,0,31.765,38.9434Z" transform="translate(-0.0431 0.0016)"  /><path d="M37.1122,40.075a1.4075,1.4075,0,0,0-1.1517,1.42v3.678l1.1517,0.2006,1.1517,0.2288V41.8686C38.2639,41.2268,37.7483,40.075,37.1122,40.075Z" transform="translate(-0.0431 0.0016)"  /><path d="M41.05,41.6961a1.2219,1.2219,0,0,0-.9493,1.2681v3.3815L41.05,46.6466,42,46.99V43.5245C42,42.9344,41.5746,41.6961,41.05,41.6961Z" transform="translate(-0.0431 0.0016)"  /><path d="M44.3434,41.3418a13.6521,13.6521,0,0,0-1.4512-1.2536c-0.0281-8.7165-4.758-15.9226-11.4915-18.5306a3.0042,3.0042,0,0,0-1.3355-1.8649c-0.1869-2.8032-4.1887-3.0245-4.28-3.0292,0,0-4.0974.226-4.2843,3.0292a3.0042,3.0042,0,0,0-1.3355,1.8649C13.432,24.1656,8.7021,31.3717,8.674,40.0882a13.6521,13.6521,0,0,0-1.4512,1.2536,3.6425,3.6425,0,0,0-1.1782,2.7433A4.1567,4.1567,0,0,0,7.74,47.2668l0.6739-.3117a4.2233,4.2233,0,0,1-1.693-2.8985A2.9469,2.9469,0,0,1,7.7015,41.82c5.9939-5.9942,17.74-5.6126,18.0838-5.6126,0.2126,0,12.0855-.3816,18.0795,5.6126a2.9469,2.9469,0,0,1,.9806,2.2362,4.2233,4.2233,0,0,1-1.693,2.8985l0.6739,0.3117a4.1567,4.1567,0,0,0,1.6953-3.1817A3.6425,3.6425,0,0,0,44.3434,41.3418Zm-11.66-5.2212a41.5876,41.5876,0,0,0-13.8,0,24.2614,24.2614,0,0,0-9.2575,3.3065C9.95,29.2853,16.928,21.4417,25.7831,21.44c8.8551,0.0013,15.8328,7.8449,16.1577,17.9866A24.2614,24.2614,0,0,0,32.6833,36.1206Z" transform="translate(-0.0431 0.0016)"  /><path d="M21.5421,26.3953l-0.8726-.016a0.3386,0.3386,0,0,0-.318.332l-0.1882,2.445a0.2925,0.2925,0,0,0,.2948.3054l0.8776-.0028a0.3747,0.3747,0,0,0,.3294-0.3584l0.1624-2.376A0.3059,0.3059,0,0,0,21.5421,26.3953Z" transform="translate(-0.0431 0.0016)"  /><path d="M17.1262,28.2483l-0.5863-.032a0.3419,0.3419,0,0,0-.2977.3256l-0.3765,2.2336a0.2475,0.2475,0,0,0,.2513.2725l0.5964-.0055a0.424,0.424,0,0,0,.32-0.3785l0.3249-2.0954A0.2771,0.2771,0,0,0,17.1262,28.2483Z" transform="translate(-0.0431 0.0016)"  /><path d="M13.629,30.26l-0.3-.0479a0.35,0.35,0,0,0-.2773.3192l-0.5647,2.0221a0.2038,0.2038,0,0,0,.2077.24l0.3152-.0083a0.4932,0.4932,0,0,0,.3114-0.3985l0.4873-1.8149A0.2531,0.2531,0,0,0,13.629,30.26Z" transform="translate(-0.0431 0.0016)"  /><path d="M26.3592,25.1927H25.207a0.3384,0.3384,0,0,0-.3384.3384v2.6565a0.3384,0.3384,0,0,0,.3384.3384h1.1522a0.3384,0.3384,0,0,0,.3384-0.3384V25.5311A0.3384,0.3384,0,0,0,26.3592,25.1927Z" transform="translate(-0.0431 0.0016)"  /><path d="M30.8967,26.3794l-0.8726.016a0.3059,0.3059,0,0,0-.2854.3293l0.1624,2.376a0.3747,0.3747,0,0,0,.3294.3584l0.8776,0.0028a0.2925,0.2925,0,0,0,.2948-0.3054l-0.1882-2.445A0.3386,0.3386,0,0,0,30.8967,26.3794Z" transform="translate(-0.0431 0.0016)"  /><path d="M35.0264,28.2164l-0.5864.032a0.2771,0.2771,0,0,0-.2324.32l0.3249,2.0954a0.424,0.424,0,0,0,.32.3785l0.5964,0.0055a0.2475,0.2475,0,0,0,.2513-0.2725L35.324,28.542A0.3419,0.3419,0,0,0,35.0264,28.2164Z" transform="translate(-0.0431 0.0016)"  /><path d="M38.5147,30.5313a0.35,0.35,0,0,0-.2773-0.3192l-0.3.0479a0.2531,0.2531,0,0,0-.1794.3112l0.4873,1.8149a0.4932,0.4932,0,0,0,.3114.3985l0.3152,0.0083a0.2038,0.2038,0,0,0,.2077-0.24Z" transform="translate(-0.0431 0.0016)"  /><path d="M26.4132,12.2536a1.33,1.33,0,0,0-.6279-1.304H25.781a1.33,1.33,0,0,0-.6279,1.304v3.31l0.63-.0532,0.63,0.0532v-3.31Z" transform="translate(-0.0431 0.0016)"  /><path d="M27.58,11.1791c0.2616,0,.4736,1.0308.4736,1.5948v3.13l-0.9472-.189V12.4837A1.4732,1.4732,0,0,1,27.58,11.1791Z" transform="translate(-0.0431 0.0016)"  /><path d="M30.0082,10.515c0-.9751-0.6167-1.1309-1.3785-1.6221l0.2215-.4561a9,9,0,0,1-2.7284-2.85l0.6689-.8892L27.4043,2.28,26.6083,1.1046l-0.5646-.1679,0.2644-.403-0.525-.5353-0.525.5353,0.2644,0.403-0.5646.1679L24.1619,2.28l0.6127,2.418,0.6689,0.8892a9,9,0,0,1-2.7284,2.85l0.2215,0.4561C22.1747,9.3841,21.558,9.54,21.558,10.515a9.4631,9.4631,0,0,1,4.2251-1.4512A9.4631,9.4631,0,0,1,30.0082,10.515Z" transform="translate(-0.0431 0.0016)"  /></svg>

<svg xmlns="http://www.w3.org/2000/svg" id="austin" viewBox="0 0 51.4843 65.0016"><path d="M23.986 11.18c-.261 0-.473 1.03-.473 1.594v3.13l.947-.19v-3.23a1.473 1.473 0 0 0-.474-1.305zM49.848 52.083c-2.668-2.668-7.546-4.484-14.498-5.397a79.73 79.73 0 0 0-9.565-.624 79.73 79.73 0 0 0-9.564.624C9.268 47.6 4.39 49.415 1.722 52.083a5.544 5.544 0 0 0-1.674 4.115 4.41 4.41 0 0 0 1.307 2.987c0 .03-.003.062-.002.093a4.646 4.646 0 0 0 1.756 3.129v2.02L1.65 65h48.273l-1.46-.573v-2.02a4.646 4.646 0 0 0 1.756-3.128l-.002-.094a4.41 4.41 0 0 0 1.307-2.987 5.544 5.544 0 0 0-1.675-4.115zM3.11 60.36a2.315 2.315 0 0 1-.403-1.14 2.017 2.017 0 0 1 .403-1.237v2.377zm4.181 2.425l-2.71 1.063v-7.3a14.616 14.616 0 0 1 2.71-1.609v7.846zm6.14-2.41l-4.669 1.832v-7.887a32.253 32.253 0 0 1 4.67-1.338v7.392zm7.604-2.985L14.9 59.798v-7.103a59.223 59.223 0 0 1 6.133-.744v5.44zm4.75 6.493a2.392 2.392 0 1 1 2.39-2.391 2.392 2.392 0 0 1-2.389 2.391zm3.28-7.07l-3.28-1.288-3.28 1.287v-4.95c1.924-.095 2.575-.094 3.283-.095s1.354 0 3.277.094v4.951zm7.605 2.984l-6.133-2.407v-5.44a59.223 59.223 0 0 1 6.133.744v7.103zm6.14 2.41l-4.669-1.833v-7.392a32.253 32.253 0 0 1 4.67 1.338v7.887zm4.181 1.641l-2.71-1.063V54.94a14.616 14.616 0 0 1 2.71 1.61v7.3zm1.471-3.488v-2.377a2.017 2.017 0 0 1 .404 1.237 2.315 2.315 0 0 1-.404 1.14zm1.322-2.809a4.99 4.99 0 0 0-.843-1.096c-2.666-2.666-7.39-4.489-14.039-5.418a72.385 72.385 0 0 0-9.116-.66 72.385 72.385 0 0 0-9.115.66c-6.65.929-11.373 2.752-14.04 5.418a4.99 4.99 0 0 0-.842 1.096 3.17 3.17 0 0 1-.388-1.411 4.189 4.189 0 0 1 1.28-3.101c5.877-5.877 22.943-5.773 23.106-5.773s17.229-.104 23.106 5.773a4.189 4.189 0 0 1 1.28 3.1 3.17 3.17 0 0 1-.39 1.412zM19.801 38.943a1.806 1.806 0 0 0-1.354 1.76v4.002l1.354-.115 1.354-.1v-3.974a1.599 1.599 0 0 0-1.354-1.573zM14.454 40.075c-.636 0-1.152 1.152-1.152 1.794v3.734l1.152-.23 1.152-.2v-3.678a1.407 1.407 0 0 0-1.152-1.42zM10.516 41.696c-.524 0-.95 1.238-.95 1.829v3.465l.95-.343.95-.301v-3.382a1.222 1.222 0 0 0-.95-1.268zM25.785 38.39h-.004a1.796 1.796 0 0 0-1.552 1.724v4.271h3.108v-4.27a1.796 1.796 0 0 0-1.552-1.724zM31.765 38.943a1.599 1.599 0 0 0-1.354 1.573v3.974l1.354.1 1.354.114v-4.002a1.806 1.806 0 0 0-1.354-1.759zM37.112 40.075a1.407 1.407 0 0 0-1.152 1.42v3.678l1.152.2 1.152.23v-3.734c0-.642-.516-1.794-1.152-1.794zM41.05 41.696a1.222 1.222 0 0 0-.95 1.268v3.382l.95.3.95.344v-3.465c0-.59-.425-1.829-.95-1.829z" transform="translate(-.043 .002)"/><path d="M44.343 41.342a13.652 13.652 0 0 0-1.45-1.254c-.029-8.716-4.759-15.922-11.492-18.53a3.004 3.004 0 0 0-1.336-1.865c-.187-2.803-4.189-3.025-4.28-3.03 0 0-4.097.227-4.284 3.03a3.004 3.004 0 0 0-1.336 1.865c-6.733 2.608-11.463 9.814-11.491 18.53a13.652 13.652 0 0 0-1.451 1.254 3.643 3.643 0 0 0-1.178 2.743 4.157 4.157 0 0 0 1.695 3.182l.674-.312a4.223 4.223 0 0 1-1.693-2.898 2.947 2.947 0 0 1 .98-2.237c5.994-5.994 17.74-5.613 18.084-5.613.213 0 12.086-.381 18.08 5.613a2.947 2.947 0 0 1 .98 2.236 4.223 4.223 0 0 1-1.693 2.899l.674.311a4.157 4.157 0 0 0 1.696-3.181 3.643 3.643 0 0 0-1.179-2.743zm-11.66-5.221a41.588 41.588 0 0 0-13.8 0 24.261 24.261 0 0 0-9.257 3.306c.324-10.142 7.302-17.985 16.157-17.987 8.855.001 15.833 7.845 16.158 17.987a24.261 24.261 0 0 0-9.258-3.306z" transform="translate(-.043 .002)"/><path d="M21.542 26.395l-.873-.016a.339.339 0 0 0-.317.332l-.189 2.445a.292.292 0 0 0 .295.306l.878-.003a.375.375 0 0 0 .33-.358l.162-2.376a.306.306 0 0 0-.286-.33zM17.126 28.248l-.586-.032a.342.342 0 0 0-.298.326l-.376 2.234a.247.247 0 0 0 .251.272l.596-.005a.424.424 0 0 0 .32-.379l.325-2.095a.277.277 0 0 0-.232-.32zM13.629 30.26l-.3-.048a.35.35 0 0 0-.277.32l-.565 2.021a.204.204 0 0 0 .208.24l.315-.008a.493.493 0 0 0 .311-.398l.488-1.815a.253.253 0 0 0-.18-.312zM26.36 25.193h-1.153a.338.338 0 0 0-.338.338v2.657a.338.338 0 0 0 .338.338h1.152a.338.338 0 0 0 .339-.338V25.53a.338.338 0 0 0-.339-.338zM30.897 26.38l-.873.015a.306.306 0 0 0-.285.33L29.9 29.1a.375.375 0 0 0 .33.358l.877.003a.292.292 0 0 0 .295-.305l-.188-2.445a.339.339 0 0 0-.318-.333zM35.026 28.216l-.586.032a.277.277 0 0 0-.232.32l.325 2.096a.424.424 0 0 0 .32.378l.596.006a.247.247 0 0 0 .251-.273l-.376-2.233a.342.342 0 0 0-.298-.326zM38.515 30.531a.35.35 0 0 0-.278-.319l-.3.048a.253.253 0 0 0-.179.311l.487 1.815a.493.493 0 0 0 .312.399l.315.008a.204.204 0 0 0 .208-.24zM26.413 12.254a1.33 1.33 0 0 0-.628-1.304h-.004a1.33 1.33 0 0 0-.628 1.304v3.31l.63-.054.63.054v-3.31zM27.58 11.18c.262 0 .474 1.03.474 1.594v3.13l-.948-.19v-3.23a1.473 1.473 0 0 1 .474-1.305zM30.008 10.515c0-.975-.617-1.13-1.378-1.622l.221-.456a9 9 0 0 1-2.728-2.85l.669-.89.612-2.417-.796-1.175-.564-.168.264-.403-.525-.536-.525.536.265.403-.565.168-.796 1.175.613 2.418.669.89a9 9 0 0 1-2.729 2.85l.222.455c-.762.491-1.379.647-1.379 1.622a9.463 9.463 0 0 1 4.225-1.451 9.463 9.463 0 0 1 4.225 1.451z" transform="translate(-.043 .002)"/></svg>
